X:1
T: Sunshine, The
Z: Dalta na bPíob
S: https://thesession.org/tunes/1362#setting32032
R: hornpipe
M: 4/4
L: 1/8
K: Amaj
cd|:(3eae (3cec (3AcA ED|[cC]EAc ecAc|(3ded (3cdc (3BcB (3ABA|GeF^d E2cd|
(3eae (3cec (3AcA ED|[cC]EAc defg|(3agf (3edc (3fed (3cBA|1 (3GAB (3EFG A2 cd:|2 (3GAB (3EFG A2||
|:Bc|dBGB E2 Bc|dBGB d2 fa|ecAc E2 cd|ecAc (3ece (3ag=g|
fdAd (3fdf (3agf|(3efe dc B2 cd|eafd cABG|Aaec A2:|

